src/images/crypto-icon-svg/btx.svg

<svg xmlns="http://www.w3.org/2000/svg" width="32" height="32" viewBox="0 0 32 32">
  <g fill="none" fill-rule="evenodd">
    <circle cx="16" cy="16" r="16" fill="#FB2EA3"/>
    <path fill="#FFF" fill-rule="nonzero" d="M22.632123,14.0201846 C22.4051691,15.5547077 21.5544614,16.2976 20.4251076,16.5580308 C21.9758768,17.3654154 22.7650461,18.6035692 22.0132922,20.7500308 C21.0803691,23.4158769 18.8639999,23.6408615 15.9165538,23.0830769 L15.2012307,25.9497846 L13.4727384,25.5190154 L14.1787076,22.6907077 C13.7307076,22.5794462 13.2728614,22.4612923 12.8012307,22.3332923 L12.0927999,25.1748923 L10.3662768,24.7441231 L11.0815999,21.872 C10.6779076,21.7686154 10.2678153,21.6588308 9.84935375,21.5539692 L7.5999999,20.9932308 L8.45809221,19.0146462 C8.45809221,19.0146462 9.73169221,19.3533538 9.71446144,19.3282462 C10.2038153,19.4493538 10.420923,19.1303385 10.5065845,18.9176615 L11.636923,14.3859692 C11.7004307,14.4012308 11.7619691,14.4169846 11.8195691,14.4312615 C11.7506461,14.4036923 11.688123,14.3859692 11.6398768,14.3736615 L12.4462768,11.1387077 C12.4674461,10.7714462 12.340923,10.3081846 11.6408614,10.1334154 C11.6679384,10.1152 10.3854768,9.82129231 10.3854768,9.82129231 L10.8452922,7.97513846 L13.2290461,8.57033846 L13.2270768,8.5792 C13.5854768,8.66830769 13.9547076,8.75298462 14.3308307,8.83864615 L15.0392614,6 L16.7667691,6.43076923 L16.0726153,9.21378462 C16.5363691,9.31963077 17.0030768,9.42646154 17.4574768,9.53969231 L18.1467076,6.77489231 L19.8751999,7.20566154 L19.1672614,10.0452923 C21.3496614,10.7970462 22.945723,11.9239385 22.632123,14.0201846 Z M18.6828307,19.5581538 C19.2411076,17.3196308 15.4838153,16.7406769 14.312123,16.4482462 L13.3629538,20.2532923 C14.5346461,20.5442462 18.1486768,21.7046154 18.6828307,19.5581538 Z M19.2174768,13.9891692 C19.7250461,11.9524923 16.5826461,11.4985846 15.6068922,11.2553846 L14.7463384,14.7064615 C15.7220922,14.9496615 18.7300922,15.9416615 19.2174768,13.9891692 Z M24.2470312,21.6176938 C24.0536526,21.6017854 23.8950493,21.6441936 23.7712166,21.7449195 C23.6473838,21.8456455 23.5638733,21.9895463 23.5206825,22.1766263 C23.5008867,22.2623713 23.4943569,22.3573354 23.501093,22.4615214 C23.507829,22.5657075 23.5416979,22.6679458 23.6027006,22.7682393 C23.6637034,22.8685329 23.7590341,22.9623823 23.8886955,23.0497903 C24.0183569,23.1371983 24.1981612,23.2074456 24.4281136,23.2605343 C24.5528336,23.2893282 24.680926,23.3035063 24.8123945,23.3030689 C24.9438631,23.3026315 25.0657377,23.2815064 25.1780221,23.2396929 C25.2903064,23.1978793 25.3883502,23.1332796 25.4721565,23.0458916 C25.5559628,22.9585037 25.6145115,22.8427077 25.6478044,22.6985002 C25.6927948,22.5036252 25.6695011,22.3289089 25.5779224,22.1743461 C25.4863436,22.0197833 25.3350258,21.901719 25.1239643,21.8201497 L25.2778308,21.1536806 C25.6570813,21.3069213 25.9237415,21.5255076 26.0778193,21.8094461 C26.2318971,22.0933846 26.2639451,22.4302238 26.1739642,22.8199737 C26.1190759,23.0577212 26.0307632,23.2579858 25.9090233,23.4207735 C25.7872835,23.5835611 25.6428381,23.7113414 25.475683,23.8041182 C25.3085279,23.896895 25.122041,23.9533916 24.9162166,23.9736097 C24.7103923,23.9938278 24.4964046,23.9782926 24.2742471,23.9270035 C24.0481921,23.8748146 23.8429799,23.7945962 23.6586044,23.686346 C23.4742288,23.5780957 23.3233622,23.4447412 23.2059998,23.2862784 C23.0886374,23.1278155 23.0094298,22.9463483 22.9683744,22.7418712 C22.9273191,22.537394 22.9355852,22.3104389 22.993173,22.0609989 C23.0336644,21.8856114 23.0945409,21.7241696 23.1758044,21.5766687 C23.2570679,21.4291678 23.3566914,21.3043813 23.4746778,21.2023057 C23.5926643,21.1002301 23.7288598,21.025965 23.8832685,20.9795083 C24.0376772,20.9330516 24.2102185,20.9236238 24.4008977,20.9512246 L24.2470312,21.6176938 Z M26.9392477,19.5051668 C26.8834596,19.7468118 26.7937971,19.9529225 26.6702577,20.1235052 C26.5467182,20.2940878 26.3997239,20.4284637 26.2292703,20.5266368 C26.0588167,20.6248099 25.868282,20.6855035 25.6576603,20.7087193 C25.4470387,20.7319351 25.2248062,20.716549 24.9909562,20.6625605 C24.7610037,20.6094718 24.5564664,20.5263303 24.3773381,20.4131336 C24.1982097,20.2999369 24.0535645,20.161861 23.9433981,19.9989016 C23.8332317,19.8359423 23.7600206,19.650728 23.7237626,19.4432532 C23.6875046,19.2357783 23.6972695,19.0112218 23.7530576,18.7695768 C23.8088458,18.5279318 23.8985082,18.3218211 24.0220477,18.1512385 C24.1455872,17.9806558 24.2925815,17.8462799 24.4630351,17.7481068 C24.6334886,17.6499337 24.8240234,17.5892401 25.034645,17.5660243 C25.2452667,17.5428085 25.4655504,17.5577447 25.6955029,17.6108334 C25.9293529,17.664822 26.135839,17.7484133 26.3149673,17.86161 C26.4940956,17.9748067 26.6387408,18.1128826 26.7489072,18.275842 C26.8590736,18.4388013 26.9322847,18.6240156 26.9685428,18.8314904 C27.0048008,19.0389653 26.9950359,19.2635218 26.9392477,19.5051668 Z M24.3154002,16.7072183 L24.4598187,16.0816727 L25.0444408,16.2166433 L25.0471402,16.2049509 C24.9697917,16.1665674 24.8986672,16.1101215 24.8337644,16.0356116 C24.7688617,15.9611017 24.7134798,15.8764752 24.6676171,15.7817296 C24.6217544,15.686984 24.5905837,15.586395 24.5741039,15.4799594 C24.5576241,15.3735238 24.5610817,15.2696401 24.5844767,15.1683051 C24.6024729,15.0903551 24.6167938,15.0372152 24.6274399,15.0088837 C24.6380859,14.9805523 24.6489568,14.9512469 24.6600528,14.9209667 L25.303137,15.0694344 C25.2845443,15.1144048 25.2667013,15.1605738 25.2496074,15.2079428 C25.2325136,15.2553119 25.218568,15.3023807 25.2077703,15.3491507 C25.1816758,15.4621782 25.1795667,15.5735573 25.2014428,15.6832913 C25.2233189,15.7930254 25.269555,15.8950399 25.3401524,15.9893381 C25.4107498,16.0836363 25.5054068,16.1670673 25.6241264,16.2396334 C25.742846,16.3121996 25.8859999,16.3678278 26.0535924,16.4065196 L27.4917626,16.7385473 L27.3378961,17.4050164 L24.3154002,16.7072183 Z M26.5943321,14.5177505 C26.7112571,14.5447448 26.828107,14.5542747 26.9448854,14.5463406 C27.0616638,14.5384065 27.1686235,14.5107591 27.2657677,14.4633976 C27.362912,14.4160361 27.4475397,14.3473126 27.5196535,14.2572253 C27.5917672,14.1671379 27.6440199,14.0519409 27.676413,13.9116309 C27.7214035,13.7167559 27.7157227,13.5502111 27.6593706,13.4119915 C27.6030186,13.2737719 27.4977964,13.1560867 27.3437011,13.0589324 L27.4894693,12.4275406 C27.6450661,12.5004101 27.7772733,12.5945627 27.886095,12.7100014 C27.9949167,12.8254401 28.0792261,12.9536916 28.1390258,13.0947598 C28.1988255,13.235828 28.2338141,13.3865606 28.2439927,13.5469621 C28.2541713,13.7073637 28.2403648,13.8694095 28.2025729,14.0331045 C28.1476845,14.270852 28.0601212,14.4723159 27.9398802,14.6375022 C27.8196392,14.8026885 27.6747439,14.9324175 27.5051902,15.0266931 C27.3356364,15.1209688 27.1460014,15.1777649 26.9362796,15.1970832 C26.7265578,15.2164015 26.5047752,15.1990667 26.2709252,15.1450781 C26.0565627,15.0955887 25.8607946,15.0144717 25.683615,14.901725 C25.5064355,14.7889782 25.3593916,14.6524011 25.2424792,14.4919895 C25.1255667,14.3315779 25.0449348,14.1518345 25.000581,13.9527537 C24.9562272,13.7536729 24.9601447,13.5411082 25.0123336,13.3150532 C25.067222,13.0773057 25.1661781,12.8753932 25.3092051,12.7093096 C25.4522321,12.543226 25.6199875,12.4167221 25.8124763,12.329794 C26.0049652,12.242866 26.213937,12.1956656 26.4393979,12.1881914 C26.6648589,12.1807173 26.8874642,12.2167153 27.1072205,12.2961867 L26.5943321,14.5177505 Z M26.4130879,19.3836932 C26.4472806,19.2355882 26.4457943,19.0997743 26.408629,18.9762474 C26.3714636,18.8527204 26.3103127,18.7441836 26.2251742,18.6506336 C26.1400358,18.5570835 26.0379579,18.4791234 25.9189376,18.4167509 C25.7999172,18.3543784 25.6741514,18.3078961 25.5416364,18.2773026 C25.4130189,18.2476089 25.2805792,18.2344798 25.1443133,18.2379148 C25.0080475,18.2413499 24.882125,18.266672 24.7665422,18.3138818 C24.6509594,18.3610917 24.5493922,18.4320621 24.4618376,18.5267952 C24.374283,18.6215282 24.3134102,18.7429454 24.2792175,18.8910504 C24.2450247,19.0391554 24.246511,19.1749693 24.2836764,19.2984962 C24.3208417,19.4220232 24.3810183,19.5303351 24.464208,19.6234352 C24.5473977,19.7165353 24.6494756,19.7944954 24.7704447,19.8573179 C24.8914138,19.9201403 25.0162052,19.9663977 25.1448227,19.9960914 C25.2773377,20.0266848 25.4107518,20.0400389 25.5450689,20.0361539 C25.679386,20.032269 25.8053085,20.0069469 25.92284,19.9601869 C26.0403716,19.913427 26.1429131,19.8426815 26.2304678,19.7479485 C26.3180224,19.6532154 26.3788952,19.5317982 26.4130879,19.3836932 Z M26.5148875,12.8614279 C26.4078554,12.8449281 26.3013481,12.8439437 26.1953624,12.8584747 C26.0893767,12.8730057 25.99291,12.9041019 25.9059594,12.9517642 C25.8190089,12.9994265 25.7425513,13.0638784 25.6765846,13.1451218 C25.6106178,13.2263653 25.5645879,13.3234993 25.5384935,13.4365268 C25.5114992,13.5534518 25.5074413,13.664381 25.5263198,13.7693177 C25.5451982,13.8742544 25.5828154,13.9691477 25.6391725,14.0540004 C25.6955296,14.1388532 25.7677018,14.2129879 25.8556913,14.2764068 C25.9436808,14.3398258 26.0437379,14.3865306 26.1558656,14.4165225 L26.5148875,12.8614279 Z"/>
  </g>
</svg>

<svg xmlns="http://www.w3.org/2000/svg" width="32" height="32"><g fill="none" fill-rule="evenodd"><circle cx="16" cy="16" r="16" fill="#FB2EA3"/><path fill="#FFF" fill-rule="nonzero" d="M22.632 14.02c-.227 1.535-1.078 2.278-2.207 2.538 1.55.807 2.34 2.046 1.588 4.192-.933 2.666-3.149 2.89-6.096 2.333L15.2 25.95l-1.728-.431.706-2.828a65.74 65.74 0 0 1-1.378-.358l-.708 2.842-1.727-.43.716-2.873c-.404-.103-.814-.213-1.233-.318l-2.249-.56.858-1.98s1.274.34 1.256.314c.49.121.707-.198.793-.41l1.13-4.532.183.045a1.432 1.432 0 0 0-.18-.057l.806-3.235c.021-.368-.105-.83-.805-1.006.027-.018-1.256-.312-1.256-.312l.46-1.846 2.384.595-.002.01c.358.088.728.173 1.104.259L15.039 6l1.728.43-.694 2.784c.463.106.93.212 1.384.326l.69-2.765 1.728.43-.708 2.84c2.183.752 3.779 1.879 3.465 3.975zm-3.95 5.538c.56-2.238-3.198-2.817-4.37-3.11l-.949 3.805c1.172.291 4.786 1.452 5.32-.695zm.535-5.569c.508-2.037-2.634-2.49-3.61-2.734l-.86 3.451c.975.244 3.983 1.236 4.47-.717zm5.03 7.629a.642.642 0 0 0-.476.127.754.754 0 0 0-.25.432.983.983 0 0 0-.02.285.67.67 0 0 0 .102.306c.06.1.156.194.286.282.13.087.31.157.54.21.124.03.252.044.383.043.132 0 .254-.021.366-.063a.726.726 0 0 0 .47-.541.688.688 0 0 0-.07-.525c-.092-.154-.243-.272-.454-.354l.154-.666c.38.153.646.372.8.655.154.284.186.621.096 1.011a1.586 1.586 0 0 1-.265.6 1.367 1.367 0 0 1-.993.554 1.98 1.98 0 0 1-.642-.047 2.173 2.173 0 0 1-.615-.24 1.498 1.498 0 0 1-.453-.4 1.348 1.348 0 0 1-.238-.545 1.61 1.61 0 0 1 .025-.681 1.87 1.87 0 0 1 .183-.484c.081-.148.18-.273.299-.375.118-.102.254-.176.408-.222.155-.047.327-.056.518-.029l-.154.667zm2.692-2.113a1.69 1.69 0 0 1-.269.619c-.123.17-.27.304-.44.403a1.45 1.45 0 0 1-.572.182c-.211.023-.433.008-.667-.046a1.967 1.967 0 0 1-.614-.25 1.45 1.45 0 0 1-.434-.414 1.414 1.414 0 0 1-.22-.556 1.69 1.69 0 0 1 .03-.673 1.69 1.69 0 0 1 .269-.619c.124-.17.27-.305.441-.403a1.45 1.45 0 0 1 .572-.182c.21-.023.43-.008.66.045.234.054.44.137.62.25.18.114.324.252.434.415.11.163.183.348.22.555a1.69 1.69 0 0 1-.03.674zm-2.624-2.798l.145-.625.584.135.003-.012a.692.692 0 0 1-.213-.17 1.14 1.14 0 0 1-.26-.555.817.817 0 0 1 .01-.312 1.484 1.484 0 0 1 .076-.247l.643.148a3.249 3.249 0 0 0-.053.139 1.233 1.233 0 0 0-.042.141.751.751 0 0 0 .132.64 1 1 0 0 0 .284.25c.119.073.262.129.43.168l1.438.332-.154.666-3.023-.698zm2.28-2.19c.116.028.233.037.35.03a.858.858 0 0 0 .32-.084.737.737 0 0 0 .255-.206.851.851 0 0 0 .156-.345.822.822 0 0 0-.017-.5.763.763 0 0 0-.315-.353l.145-.631a1.29 1.29 0 0 1 .755 1.119c.01.16-.004.322-.041.486-.055.238-.143.44-.263.605a1.34 1.34 0 0 1-1.004.56 2.096 2.096 0 0 1-1.252-.296 1.605 1.605 0 0 1-.442-.41 1.435 1.435 0 0 1-.241-.54c-.045-.198-.04-.41.011-.637a1.39 1.39 0 0 1 .297-.606c.143-.166.311-.292.503-.38a1.64 1.64 0 0 1 .627-.14c.226-.008.448.028.668.107l-.513 2.222zm-.182 4.867a.785.785 0 0 0-.188-.733 1.1 1.1 0 0 0-.306-.234 1.57 1.57 0 0 0-.775-.18 1.061 1.061 0 0 0-.377.077.785.785 0 0 0-.487.577.785.785 0 0 0 .184.732c.083.094.185.171.306.234a1.582 1.582 0 0 0 .775.18 1.1 1.1 0 0 0 .378-.077.785.785 0 0 0 .49-.576zm.102-6.523a1.103 1.103 0 0 0-.32-.003.773.773 0 0 0-.519.287.822.822 0 0 0-.15.624c.02.105.057.2.113.285a.91.91 0 0 0 .517.363l.359-1.556z"/></g></svg>
